X: 2
T:Ashplant, The
M:C|
L:1/8
Q:200
S:THSP
R:reel
D:Sanctuary Sessions
Z:
K:D
"D"AF~F2 BFAF|DEFA "G"BABd|"Em"eB~B2 egfe|dBAD "A"FEE2|
"D"AF~F2 BFAF|"G"DEFA "G"BABd|"Em"egfg edBd
|1 "A"AFEF "D"D3B:|2 "A"AFEF "D"D3A||:
"D"~d3e ~f3g|afbf afeg|"Em"eB~B2 gB~B2|"G"fedf "A"edBd|
"D"AF~F2 ABdf|afbf afef|("G"~g3f edBd|1 "A"AFEF "D"D3A:|2 "A"AFEF "D"D3B
|]
